X: 1
T: Trip To Sligo, The
M: 6/8
L: 1/8
R: jig
K: Emin
|: E2e BGE | D2d AFD | E2e BGE | BAG e2f |
gfe dcB | ABG FED | EFG ABC | BGF E3 :|
|: eBe gfe | dAd gag | eBe gfe | faf gbg |
faf  gfe | dcB AGF | EFG ABc | BGF E3 :|
